X:65
T:Steyrer Tanz in G, nr. 24
C:traditionell
R:Steirer
A:Hallstatt, Salzkammergut
B:Corpus Musicae Popularis Austriacae (COMPA), 5.Band: J.M.Schmalnauer " Tanz Musik", Verlag Boehlau, Wien 1996
S:manuscript des Johann Michael Schmalnauer um 1820
N:im der quelle in G
Z:abc transcription Simon Wascher
F:http://simonwascher.info/TradArchiv/
M:3/4
L:1/8
K:G
V:1
%violino 1mo
F2 G2 A2 | BF G3 B | cD F3 D | BD G2 G2 |\
F2 G2 A2 | BF G3 B | cDFADF | "in D"G6 :|
V:2
%violino 2do
A2 [B2D6] c2 | dA [B4 D4] | "4"eA [c4D4] | dA [B2D2] [B2D2] |\
A2 B2 c2 | dA B3 d | "4"eA [c2D2] [c2D2] | [B4D4] :|
